dist/images/svg_sprite/house.svg

<svg width="45" height="45" viewBox="0 0 45 45" fill="none" xmlns="http://www.w3.org/2000/svg">
<path d="M33 16.5V14.6309L23.25 7.13086V6H30.75V0H21.75V7.13086L12 14.6309V16.5H0V45H45V16.5H33ZM23.25 1.5H29.25V4.5H23.25V1.5ZM6.75 38.25C5.92163 38.25 5.25 37.5784 5.25 36.75C5.25 35.5049 6.21973 33.0872 6.74634 33C7.28027 33.0872 8.25 35.5049 8.25 36.75C8.25 37.5784 7.57837 38.25 6.75 38.25ZM12 43.5H7.5V39.6434C8.82056 39.3025 9.74487 38.1138 9.75 36.75C9.75 35.673 8.81982 31.5 6.75 31.5C4.68018 31.5 3.75 35.673 3.75 36.75C3.75513 38.1138 4.67944 39.3025 6 39.6434V43.5H1.5V18H12V43.5ZM31.5 43.5H13.5V15.3691L22.5 8.44666L31.5 15.3691V43.5ZM38.25 38.25C37.4216 38.25 36.75 37.5784 36.75 36.75C36.75 35.9216 37.4216 35.25 38.25 35.25C39.0784 35.25 39.75 35.9216 39.75 36.75C39.75 37.5784 39.0784 38.25 38.25 38.25ZM43.5 43.5H39V39.6434C40.4626 39.2659 41.4166 37.8593 41.2262 36.3607C41.0358 34.8622 39.7606 33.7386 38.25 33.7386C36.7394 33.7386 35.4642 34.8622 35.2738 36.3607C35.0834 37.8593 36.0374 39.2659 37.5 39.6434V43.5H33V18H43.5V43.5Z" fill="#4054B2"/>
<path d="M27.75 33H29.25V31.5H15.75V33H17.25V41.25H15V42.75H30V41.25H27.75V33ZM18.75 33H21.75V36.2084C21.2864 36.4731 21.0004 36.9661 21.0004 37.5C21.0004 38.0339 21.2864 38.5269 21.75 38.7916V41.25H18.75V33ZM23.25 41.25V38.7916C23.7136 38.5269 23.9996 38.0339 23.9996 37.5C23.9996 36.9661 23.7136 36.4731 23.25 36.2084V33H26.25V41.25H23.25Z" fill="#4054B2"/>
<path d="M15 29.25H30V30.75H15V29.25Z" fill="#4054B2"/>
<path d="M21 23.25H16.5V27.75H21V23.25ZM19.5 26.25H18V24.75H19.5V26.25Z" fill="#4054B2"/>
<path d="M23.9999 27.75H28.4999V23.25H23.9999V27.75ZM25.4999 24.75H26.9999V26.25H25.4999V24.75Z" fill="#4054B2"/>
<path d="M21 17.25H16.5V21.75H21V17.25ZM19.5 20.25H18V18.75H19.5V20.25Z" fill="#4054B2"/>
<path d="M28.4999 17.25H23.9999V21.75H28.4999V17.25ZM26.9999 20.25H25.4999V18.75H26.9999V20.25Z" fill="#4054B2"/>
<path d="M40.5 25.5H36V30H40.5V25.5ZM39 28.5H37.5V27H39V28.5Z" fill="#4054B2"/>
<path d="M40.5 19.5H36V24H40.5V19.5ZM39 22.5H37.5V21H39V22.5Z" fill="#4054B2"/>
<path d="M9 25.5H4.5V30H9V25.5ZM7.5 28.5H6V27H7.5V28.5Z" fill="#4054B2"/>
<path d="M9 19.5H4.5V24H9V19.5ZM7.5 22.5H6V21H7.5V22.5Z" fill="#4054B2"/>
<path d="M22.5 15C23.7426 15 24.75 13.9926 24.75 12.75C24.75 11.5074 23.7426 10.5 22.5 10.5C21.2574 10.5 20.25 11.5074 20.25 12.75C20.25 13.9926 21.2574 15 22.5 15ZM22.5 12C22.9142 12 23.25 12.3358 23.25 12.75C23.25 13.1642 22.9142 13.5 22.5 13.5C22.0858 13.5 21.75 13.1642 21.75 12.75C21.75 12.3358 22.0858 12 22.5 12Z" fill="#4054B2"/>
</svg>

<svg width="45" height="45" fill="none" xmlns="http://www.w3.org/2000/svg"><path d="M33 16.5v-1.87l-9.75-7.5V6h7.5V0h-9v7.13L12 14.63v1.87H0V45h45V16.5H33zm-9.75-15h6v3h-6v-3zM6.75 38.25a1.5 1.5 0 0 1-1.5-1.5c0-1.245.97-3.663 1.496-3.75.534.087 1.504 2.505 1.504 3.75a1.5 1.5 0 0 1-1.5 1.5zM12 43.5H7.5v-3.857a3 3 0 0 0 2.25-2.893c0-1.077-.93-5.25-3-5.25s-3 4.173-3 5.25A3 3 0 0 0 6 39.643V43.5H1.5V18H12v25.5zm19.5 0h-18V15.37l9-6.923 9 6.922V43.5zm6.75-5.25a1.5 1.5 0 1 1 0-3 1.5 1.5 0 0 1 0 3zm5.25 5.25H39v-3.857a3 3 0 1 0-1.5 0V43.5H33V18h10.5v25.5z" fill="#4054B2"/><path d="M27.75 33h1.5v-1.5h-13.5V33h1.5v8.25H15v1.5h15v-1.5h-2.25V33zm-9 0h3v3.208a1.487 1.487 0 0 0 0 2.584v2.458h-3V33zm4.5 8.25v-2.458a1.487 1.487 0 0 0 0-2.584V33h3v8.25h-3zm-8.25-12h15v1.5H15v-1.5zm6-6h-4.5v4.5H21v-4.5zm-1.5 3H18v-1.5h1.5v1.5zm4.5 1.5h4.5v-4.5H24v4.5zm1.5-3H27v1.5h-1.5v-1.5zm-4.5-7.5h-4.5v4.5H21v-4.5zm-1.5 3H18v-1.5h1.5v1.5zm9-3H24v4.5h4.5v-4.5zm-1.5 3h-1.5v-1.5H27v1.5zm13.5 5.25H36V30h4.5v-4.5zm-1.5 3h-1.5V27H39v1.5zm1.5-9H36V24h4.5v-4.5zm-1.5 3h-1.5V21H39v1.5zm-30 3H4.5V30H9v-4.5zm-1.5 3H6V27h1.5v1.5zm1.5-9H4.5V24H9v-4.5zm-1.5 3H6V21h1.5v1.5zm15-7.5a2.25 2.25 0 1 0 0-4.5 2.25 2.25 0 0 0 0 4.5zm0-3a.75.75 0 1 1 0 1.5.75.75 0 0 1 0-1.5z" fill="#4054B2"/></svg>
